X: 1
T: Sweet Grandmother's Spatula
M: 4/4
L: 1/8
K: Amaj
|:ABAE GABd|cEBE cEAE|DAdD cDAB|cF F/F/F BEE2-|
EBAE GABd|cEBE cEAE|DAdD cDAB|1cF F/F/F A4:|2cF F/F/F A3B||
|:c2cA B2BA|c2cA BABc|dD D/D/D cFFA|BAFA BEd2|
c2cA B2BA|c2de BAag|fedc d3c|1BAFB A2AB:|2BAFB A4|]
